X: 182
T: Jessica's
R: Polka
M: 2/4
L: 1/8
K: Amaj
ef/e/ ce|fe Bc|A>B cA|ec B2|ef/e/ ce|fe cB|A>B cA|FA E2:||
FB AF|cB A2|ef/e/ ce|ag f2|ef/e/ ce|fe cB|A>B cA|FA E2:||

